__todo__/nvidia.svg

<svg height="98" preserveAspectRatio="xMidYMid" viewBox="0 0 512 98" width="512" xmlns="http://www.w3.org/2000/svg"><path d="m312.804734 18.3939138v63.8377007h18.015215v-63.8377007zm-141.741336-.1081995v63.8918005h18.177515v-49.6094675l14.174133.0540998c4.652579 0 7.898563 1.1360947 10.116653 3.5164835 2.867287 3.0295858 4.003381 7.9526627 4.003381 16.8791209v29.1597633h17.636518v-35.2730347c0-25.2104818-16.067625-28.6187658-31.756552-28.6187658zm170.7929.1081995v63.8377007h29.213863c15.580727 0 20.666103-2.5967878 26.130177-8.3854607 3.895182-4.0574809 6.38377-13.0380388 6.38377-22.8300929 0-8.9805579-2.10989-16.9873204-5.842772-21.9644971-6.600169-8.9264581-16.229924-10.65765-30.620457-10.65765zm17.852916 13.8495351h7.736264c11.252747 0 18.502113 5.0312764 18.502113 18.123415s-7.249366 18.1775148-18.502113 18.1775148h-7.736264zm-72.872359-13.8495351-15.039729 50.5832629-14.390533-50.5832629h-19.475908l20.557903 63.8377007h25.967879l20.774302-63.8377007zm125.186814 63.8377007h18.015215v-63.8377007h-18.015215zm50.529163-63.8377007-25.156382 63.783601h17.744717l4.003381-11.306847h29.75486l3.786983 11.2527472h19.313609l-25.372781-63.7295012zm11.685545 11.6314455 10.928149 29.86306h-22.180896z"/><path d="m54.8030431 28.9974641v-8.7641589c.865596-.0540998 1.7311919-.1081995 2.5967878-.1081995 24.0202874-.7573965 39.7633136 20.6661031 39.7633136 20.6661031s-16.9873203 23.5874894-35.2189349 23.5874894c-2.4344886 0-4.8148774-.3786982-7.0870667-1.1360946v-26.6170753c9.3592561 1.1360947 11.2527472 5.2476754 16.8250211 14.6069315l12.4970414-10.4953508s-9.1428571-11.9560439-24.5071851-11.9560439c-1.6229924-.0540998-3.2459848.0540997-4.8689772.216399m0-28.9974641v13.0921386l2.5967878-.1622992c33.3795436-1.1360947 55.1817411 27.3744717 55.1817411 27.3744717s-24.9940826 30.4040575-51.0160606 30.4040575c-2.2721893 0-4.4902789-.216399-6.7083685-.5950973v8.114962c1.8393913.216399 3.7328825.3786982 5.5722738.3786982 24.2366864 0 41.7650043-12.3888419 58.7523243-26.9957734 2.813187 2.2721893 14.336433 7.7362637 16.716822 10.1166526-16.121724 13.5249366-53.7210482 24.3989856-75.0363483 24.3989856-2.0557904 0-4.0033812-.1081995-5.9509721-.3245985v11.4150465h92.0777684v-97.2172443zm0 63.2426036v6.9247675c-22.397295-4.0033812-28.6187658-27.3203719-28.6187658-27.3203719s10.7658495-11.9019443 28.6187658-13.8495351v7.5739645h-.0540997c-9.3592562-1.1360947-16.7168217 7.6280642-16.7168217 7.6280642s4.1656805 14.7692308 16.7709214 19.0431108m-39.7633136-21.3693999s13.2544379-19.5841082 39.8174134-21.6398985v-7.1411666c-29.4302621 2.3803889-54.8571429 27.2662722-54.8571429 27.2662722s14.3905325 41.6568048 54.8030431 45.443787v-7.5739645c-29.646661-3.6787828-39.7633136-36.3550296-39.7633136-36.3550296z" fill="#76b900"/></svg>

<?xml version="1.0" encoding="UTF-8"?>
<svg width="512px" height="98px" viewBox="0 0 512 98" version="1.1" xmlns="http://www.w3.org/2000/svg" preserveAspectRatio="xMidYMid">
    <title>Nvidia</title>
    <g>
        <path d="M312.804734,18.3939138 L312.804734,82.2316145 L330.819949,82.2316145 L330.819949,18.3939138 L312.804734,18.3939138 Z M171.063398,18.2857143 L171.063398,82.1775148 L189.240913,82.1775148 L189.240913,32.5680473 L203.415046,32.6221471 C208.067625,32.6221471 211.313609,33.7582418 213.531699,36.1386306 C216.398986,39.1682164 217.53508,44.0912933 217.53508,53.0177515 L217.53508,82.1775148 L235.171598,82.1775148 L235.171598,46.9044801 C235.171598,21.6939983 219.103973,18.2857143 203.415046,18.2857143 L171.063398,18.2857143 L171.063398,18.2857143 Z M341.856298,18.3939138 L341.856298,82.2316145 L371.070161,82.2316145 C386.650888,82.2316145 391.736264,79.6348267 397.200338,73.8461538 C401.09552,69.7886729 403.584108,60.808115 403.584108,51.0160609 C403.584108,42.035503 401.474218,34.0287405 397.741336,29.0515638 C391.141167,20.1251057 381.511412,18.3939138 367.120879,18.3939138 L341.856298,18.3939138 L341.856298,18.3939138 Z M359.709214,32.2434489 L367.445478,32.2434489 C378.698225,32.2434489 385.947591,37.2747253 385.947591,50.3668639 C385.947591,63.4590025 378.698225,68.5443787 367.445478,68.5443787 L359.709214,68.5443787 L359.709214,32.2434489 Z M286.836855,18.3939138 L271.797126,68.9771767 L257.406593,18.3939138 L237.930685,18.3939138 L258.488588,82.2316145 L284.456467,82.2316145 L305.230769,18.3939138 L286.836855,18.3939138 L286.836855,18.3939138 Z M412.023669,82.2316145 L430.038884,82.2316145 L430.038884,18.3939138 L412.023669,18.3939138 L412.023669,82.2316145 Z M462.552832,18.3939138 L437.39645,82.1775148 L455.141167,82.1775148 L459.144548,70.8706678 L488.899408,70.8706678 L492.686391,82.123415 L512,82.123415 L486.627219,18.3939138 L462.552832,18.3939138 L462.552832,18.3939138 Z M474.238377,30.0253593 L485.166526,59.8884193 L462.98563,59.8884193 L474.238377,30.0253593 Z" fill="#000000"></path>
        <path d="M54.8030431,28.9974641 L54.8030431,20.2333052 C55.6686391,20.1792054 56.534235,20.1251057 57.3998309,20.1251057 C81.4201183,19.3677092 97.1631445,40.7912088 97.1631445,40.7912088 C97.1631445,40.7912088 80.1758242,64.3786982 61.9442096,64.3786982 C59.509721,64.3786982 57.1293322,64 54.8571429,63.2426036 L54.8571429,36.6255283 C64.216399,37.761623 66.1098901,41.8732037 71.682164,51.2324598 L84.1792054,40.737109 C84.1792054,40.737109 75.0363483,28.7810651 59.6720203,28.7810651 C58.0490279,28.7269653 56.4260355,28.8351648 54.8030431,28.9974641 M54.8030431,0 L54.8030431,13.0921386 L57.3998309,12.9298394 C90.7793745,11.7937447 112.581572,40.3043111 112.581572,40.3043111 C112.581572,40.3043111 87.5874894,70.7083686 61.5655114,70.7083686 C59.2933221,70.7083686 57.0752325,70.4919696 54.8571429,70.1132713 L54.8571429,78.2282333 C56.6965342,78.4446323 58.5900254,78.6069315 60.4294167,78.6069315 C84.6661031,78.6069315 102.194421,66.2180896 119.181741,51.6111581 C121.994928,53.8833474 133.518174,59.3474218 135.898563,61.7278107 C119.776839,75.2527473 82.1775148,86.1267963 60.8622147,86.1267963 C58.8064243,86.1267963 56.8588335,86.0185968 54.9112426,85.8021978 L54.9112426,97.2172443 L146.989011,97.2172443 L146.989011,0 L54.8030431,0 L54.8030431,0 Z M54.8030431,63.2426036 L54.8030431,70.1673711 C32.4057481,66.1639899 26.1842773,42.8469992 26.1842773,42.8469992 C26.1842773,42.8469992 36.9501268,30.9450549 54.8030431,28.9974641 L54.8030431,36.5714286 L54.7489434,36.5714286 C45.3896872,35.4353339 38.0321217,44.1994928 38.0321217,44.1994928 C38.0321217,44.1994928 42.1978022,58.9687236 54.8030431,63.2426036 M15.0397295,41.8732037 C15.0397295,41.8732037 28.2941674,22.2890955 54.8571429,20.2333052 L54.8571429,13.0921386 C25.4268808,15.4725275 0,40.3584108 0,40.3584108 C0,40.3584108 14.3905325,82.0152156 54.8030431,85.8021978 L54.8030431,78.2282333 C25.1563821,74.5494505 15.0397295,41.8732037 15.0397295,41.8732037 Z" fill="#76B900"></path>
    </g>
</svg>
